X:113
T:Marble Lake Jig
R:jig
C:Bruce Osborne - Jan. 2003
Z:abc by bosborne@kos.net
M:6/8
L:1/8
K:Bb
D/E/|F=EF BAB|dcd BAB|cdc BAG|gf=e f2 D/E/|\
F=EF BAB|dcd BAB|cdc BAG|Fdc B2:|
|:A/B/|cFF F=EF|dBB BAB|cFF FGA|Bdg f2 A/B/|\
cFF F=EF|dBB BAB|cFF FGA|Bdc B2:|
